X:1
T:KARIBEKO PIRATAK
T:Hans Zimmer
T:IKASLEA:                                                                               KLASEA:
T:www.musicasecundaria.com
Z:www.musicasecundaria.com
L:1/8
M:3/4
K:C
V:1 treble nm="Flute" snm="Fl."
V:1
 z4 EG |: A2 A2 AB | c2 c2 cd | B2 B2 AG | GA z2 EG | A2 A2 AB | c2 c2 cd | B2 B2 AG | A2 z2 EG | %9
 A2 A2 Ac | d2 d2 de | f2 f2 ed | eA z2 AB | c2 c2 d2 | eA z2 Ac |1 B2 B2 cA | B2 z2 EG :|2 %17
 B2 B2 AG | A6 |] %19

